X:41
T:Red Wolf
F:Red_Wolf
R:reel
C:Simon Dew
M:2/2
L:1/8
Q:1/2=120
K:Gm
P:A
GB|"Gm"d2Bd edBc|"Ebmaj7"dedB G2GA|"Cm7"B2GB cBAG|"D7"^FGA^F D2GB|
   "Gm"d2Bd edBc|"Ebmaj7"dedB G2GA|"Cm7"B2GB cBAG|"D7"^F2"Gm"G2 -G2 :|
P:B
|:AB|"F"c2F2 FGAB|"F7"c2F2 F2GA|"Cm7"B2GB cBAG|"D7"^FGA^F D2AB|
     "F"c2F2 FGAB|"F7"c2F2 F2GA|"Cm7"B2GB cBAG|"D7"^F2"Gm"G2 -G2 :|

